usr/share/icons/big-icons/symbolic/actions/draw-connector.svg

<svg xmlns="http://www.w3.org/2000/svg" viewBox="0 0 16 16">
  <defs id="defs3051">
    <style type="text/css" id="current-color-scheme">
      .ColorScheme-Text {
        color:#eff0f1;
      }
      .ColorScheme-Highlight {
        color:#3daee9;
      }
      </style>
  </defs>
  <path 
        style="fill:currentColor;fill-opacity:1;stroke:none"
        d="M 11,4.3175 4.31225,11.00525 5,11.00525 5,11.693 11.68775,5.00525 11,5.00525 Z" 
        class="ColorScheme-Text"
        />
  <path 
        style="fill:currentColor;fill-opacity:1;stroke:none"
        d="M 11 2 L 11 5 L 14 5 L 14 2 L 11 2 z M 12 3 L 13 3 L 13 4 L 12 4 L 12 3 z M 2 11 L 2 14 L 5 14 L 5 11 L 2 11 z M 3 12 L 4 12 L 4 13 L 3 13 L 3 12 z "
        class="ColorScheme-Highlight"
        />
</svg>

<svg xmlns="http://www.w3.org/2000/svg" viewBox="0 0 16 16">
<defs id="defs3051">
<style id="current-color-scheme" type="text/css">
.ColorScheme-Text{color:#fcfcfc}.ColorScheme-Highlight{color:#3daee9}
</style>
</defs>
<path d="m11 4.318-6.688 6.687H5v.688l6.688-6.688H11Z" class="ColorScheme-Text" style="fill:currentColor;fill-opacity:1;stroke:none"/>
<path d="M11 2v3h3V2zm1 1h1v1h-1zM2 11v3h3v-3zm1 1h1v1H3z" class="ColorScheme-Highlight" style="fill:currentColor;fill-opacity:1;stroke:none"/>
</svg>
